X:1
T:London Bridge Is Falling Down
C:Traditional
M:4/4
L:1/4
Q:1/4=100
K:G
G A B c | d2 B A | G A B c | d4 |
d e d c | B2 A G | A B c A | G4 |]
w: Lon- don Bridge is fall- ing down | fall- ing down fall- ing down | Lon- don Bridge is fall- ing down | my fair La- dy |
w: Lon- don Bridge is fall- ing down | fall- ing down fall- ing down | Lon- don Bridge is fall- ing down | my fair La- dy |
